vibe-coding/src/assets/images/arrows-down-to-people-solid-full.svg

<?xml version="1.0" encoding="UTF-8"?>
<svg id="Layer_1" xmlns="http://www.w3.org/2000/svg" version="1.1" viewBox="0 0 640 640">
  <!-- Generator: Adobe Illustrator 30.0.0, SVG Export Plug-In . SVG Version: 2.1.1 Build 123)  -->
  <defs>
    <style>
      .st0 {
        stroke-linecap: round;
      }

      .st0, .st1 {
        stroke-linejoin: round;
      }

      .st0, .st1, .st2 {
        fill: none;
        stroke: #000;
        stroke-width: 29px;
      }

      .st2 {
        stroke-miterlimit: 10;
      }
    </style>
  </defs>
  <path class="st2" d="M320,256c30.9,0,56,25.1,56,56s-25.1,56-56,56-56-25.1-56-56,25.1-56,56-56Z"/>
  <path class="st2" d="M320,416c53,0,96,43,96,96v32c0,17.7-14.3,32-32,32h-128c-17.7,0-32-14.3-32-32v-32c0-53,43-96,96-96Z"/>
  <path class="st2" d="M96,352c0-26.5,21.5-48,48-48s48,21.5,48,48-21.5,48-48,48-48-21.5-48-48Z"/>
  <path class="st2" d="M448,352c0-26.5,21.5-48,48-48s48,21.5,48,48-21.5,48-48,48-48-21.5-48-48Z"/>
  <path class="st1" d="M144,432c15.3,0,29.6,4.3,41.8,11.8-6.3,16.2-9.8,33.8-9.8,52.2v48c0,11.4,2.4,22.2,6.7,32h-87.8c-17.1,0-30.9-13.8-30.9-30.9v-33.1c0-44.2,35.8-80,80-80Z"/>
  <path class="st1" d="M457.3,576c4.3-9.8,6.7-20.6,6.7-32v-48c0-18.4-3.5-36-9.8-52.2,12.2-7.5,26.5-11.8,41.8-11.8,44.2,0,80,35.8,80,80v33.1c0,17-13.8,30.9-30.9,30.9h-87.8Z"/>
  <polyline class="st0" points="224 133.78 159.97 198.89 96.2 133.78 159.97 198.89 159.97 43.4"/>
  <polyline class="st0" points="533.75 133.78 469.72 198.89 405.95 133.78 469.72 198.89 469.72 43.4"/>
</svg>

<svg xmlns="http://www.w3.org/2000/svg" viewBox="0 0 640 640"><!--!Font Awesome Free 7.2.0 by @fontawesome - https://fontawesome.com License - https://fontawesome.com/license/free Copyright 2026 Fonticons, Inc.--><path d="M177 217C167.6 226.4 152.4 226.4 143.1 217L79 153C69.7 143.6 69.7 128.4 79 119C88.3 109.6 103.6 109.7 113 119L136 142.1L136 56C136 42.7 146.7 32 160 32C173.3 32 184 42.7 184 56L184 142.1L207 119.1C216.4 109.7 231.6 109.7 240.9 119.1C250.2 128.5 250.3 143.7 240.9 153L176.9 217zM497 217C487.6 226.4 472.4 226.4 463.1 217L399 153C389.6 143.6 389.6 128.4 399 119.1C408.4 109.8 423.6 109.7 432.9 119.1L455.9 142.1L455.9 56C455.9 42.7 466.6 32 479.9 32C493.2 32 503.9 42.7 503.9 56L503.9 142.1L526.9 119.1C536.3 109.7 551.5 109.7 560.8 119.1C570.1 128.5 570.2 143.7 560.8 153L496.8 217zM320 256C350.9 256 376 281.1 376 312C376 342.9 350.9 368 320 368C289.1 368 264 342.9 264 312C264 281.1 289.1 256 320 256zM320 416C373 416 416 459 416 512L416 544C416 561.7 401.7 576 384 576L256 576C238.3 576 224 561.7 224 544L224 512C224 459 267 416 320 416zM96 352C96 325.5 117.5 304 144 304C170.5 304 192 325.5 192 352C192 378.5 170.5 400 144 400C117.5 400 96 378.5 96 352zM448 352C448 325.5 469.5 304 496 304C522.5 304 544 325.5 544 352C544 378.5 522.5 400 496 400C469.5 400 448 378.5 448 352zM144 432C159.3 432 173.6 436.3 185.8 443.8C179.5 460 176 477.6 176 496L176 544C176 555.4 178.4 566.2 182.7 576L94.9 576C77.8 576 64 562.2 64 545.1L64 512C64 467.8 99.8 432 144 432zM457.3 576C461.6 566.2 464 555.4 464 544L464 496C464 477.6 460.5 460 454.2 443.8C466.4 436.3 480.7 432 496 432C540.2 432 576 467.8 576 512L576 545.1C576 562.1 562.2 576 545.1 576L457.3 576z"/></svg>
